X: 25472
T: Marchioness Of Huntly's Favourite
R: jig
M: 6/8
K: Eminor
|:B,|E2F G2E|F2d AGF|E2F G2A|B2G BAG|
F2d d^cB|AFD DEF|G2E FE^D|E3 E2:|
F|G2E B,2G|AFD D2F|E2G F2A|G2B A2c|
B2g d2B|AFD Def|g2e fe^d|e3 E2F|
G2E B,2G|AFD D2F|E2e efg|f2d fga|
g2b bag|fed fga|bag fe^d|e3 E2|

